X: 30140
T: Old Chestnuts
R: jig
M: 6/8
K: Eminor
E2 B B^AB|E2 B ^A2 B|d2 B BAG|FF/G/A AFD|
E2 B B^AB|E2 B ^A2 B|d2 G B^AB|AGF E2:|
e2 B g2 B|dB^A BB/^c/^d|eBB gBB|a^ga b2 ^d|
e2 B g2 B|c2 g e2 c|E/F/GB B^AB|AGF E2:|
e2 g bag|f2 g agf|e2 B ge/f/g|a^ga b2 g|
be/g/b g2 B|ege ^A3|Beg B^AB|AGF E2 B|
E2 G BAG|F2 G AGF|E2 B GE/F/G|A^GA B2 G|
BE/G/B G2 B|EGE ^A3|BEG B^AB|AGF E2||

